X:443
T: Songlang canjun
N: C2060
O: China, Anhui 
S: III, 557]
R: Xiaodiao]
M: 2/4
L: 1/16
K: F
F2F2C4 | F2F2C4 | c3dc2A2 | c2A2G4
G4c4 | c2D2F4 | G2A2G2F2 | F2D2C4
F2F2C4 | F2F2C4 | c3dc2A2 | c2A2G4
G3Ac4 | c2D2F4 | G3FG2F2 | G3AG2G2 | G2F2D2D2 | C8
G3Ac4 | c2D2F4 | F3Gc2A2 | G2F2D2F2 | C6D2 | C8

